rospo-light/16x16/actions/escape-direction-left.svg

<svg height="16" viewBox="0 0 16 16" width="16" xmlns="http://www.w3.org/2000/svg"><path d="m1 .98046875v14.00000025h14v-14.00000025zm2 2.00000005h10v10.0000002h-10v-4.0000002h3.2773438c.34635.5956499.9839812 1 1.7226562 1 1.1046 0 2-.8954 2-2 0-1.1046001-.8954-2-2-2-.738675 0-1.3763063.40435-1.7226562 1h-3.2773438z" fill="#5c616c"/></svg>

<?xml version="1.0" encoding="UTF-8" standalone="no"?>
<svg xmlns="http://www.w3.org/2000/svg" width="22" height="22" viewBox="0 0 22 22">
 <defs>
  <style type="text/css" id="current-color-scheme">
   .ColorScheme-Text { color:#5c616c; } .ColorScheme-Highlight { color:#5294e2; }
  </style>
 </defs>
 <path style="fill:currentColor;opacity:1" class="ColorScheme-Text" transform="translate(3 3)" d="M 1 0.98046875 L 1 14.980469 L 15 14.980469 L 15 0.98046875 L 1 0.98046875 z M 3 2.9804688 L 13 2.9804688 L 13 12.980469 L 3 12.980469 L 3 8.9804688 L 6.2773438 8.9804688 C 6.6236938 9.5761187 7.261325 9.9804688 8 9.9804688 C 9.1046 9.9804688 10 9.0850688 10 7.9804688 C 10 6.8758687 9.1046 5.9804688 8 5.9804688 C 7.261325 5.9804688 6.6236937 6.3848188 6.2773438 6.9804688 L 3 6.9804688 L 3 2.9804688 z"/>
</svg>
